findly-builder/apps/searchassist/src/assets/icons/search-interface/image_dummy_large.svg

<svg width="77" height="67" viewBox="0 0 77 67" fill="none" xmlns="http://www.w3.org/2000/svg">
<path fill-rule="evenodd" clip-rule="evenodd" d="M8.59375 0.875C4.11206 0.875 0.4375 4.54956 0.4375 9.03125V57.9688C0.4375 62.4504 4.11206 66.125 8.59375 66.125H68.4062C72.8879 66.125 76.5625 62.4504 76.5625 57.9688V9.03125C76.5625 4.54956 72.8879 0.875 68.4062 0.875H8.59375ZM8.59375 6.3125H68.4062C69.9355 6.3125 71.125 7.50195 71.125 9.03125V48.5381L52.4474 28.8194C52.2458 28.6065 51.9052 28.612 51.7105 28.8312L41.4524 40.3818L25.4511 23.5089C25.2494 23.2962 24.909 23.3018 24.7144 23.5209L5.875 44.7361V9.03125C5.875 7.50195 7.06445 6.3125 8.59375 6.3125ZM54.8125 11.75C51.8176 11.75 49.375 14.1926 49.375 17.1875C49.375 20.1824 51.8176 22.625 54.8125 22.625C57.8074 22.625 60.25 20.1824 60.25 17.1875C60.25 14.1926 57.8074 11.75 54.8125 11.75ZM25.2036 31.1423L53.2195 60.6875H8.59375C7.06445 60.6875 5.875 59.498 5.875 57.9688V52.9348L25.2036 31.1423ZM52.1787 36.4736L71.125 56.4395V57.9688C71.125 59.498 69.9355 60.6875 68.4062 60.6875H60.696L45.2119 44.3325L52.1787 36.4736Z" fill="#E4E5E7"/>
</svg>

<svg width="77" height="67" fill="none" xmlns="http://www.w3.org/2000/svg"><path fill-rule="evenodd" clip-rule="evenodd" d="M8.594.875C4.112.875.438 4.55.438 9.031V57.97c0 4.481 3.674 8.156 8.156 8.156h59.812c4.482 0 8.156-3.675 8.156-8.156V9.03c0-4.481-3.674-8.156-8.156-8.156H8.594Zm0 5.438h59.812a2.683 2.683 0 0 1 2.719 2.718v39.507L52.447 28.82a.5.5 0 0 0-.736.012l-10.259 11.55-16-16.872a.5.5 0 0 0-.738.012L5.875 44.736V9.031c0-1.53 1.19-2.719 2.719-2.719Zm46.218 5.437a5.448 5.448 0 0 0-5.437 5.438 5.448 5.448 0 0 0 5.438 5.437 5.448 5.448 0 0 0 5.437-5.438 5.448 5.448 0 0 0-5.438-5.437ZM25.204 31.142l28.015 29.546H8.594a2.684 2.684 0 0 1-2.719-2.72v-5.033l19.329-21.793Zm26.975 5.332L71.125 56.44v1.529a2.684 2.684 0 0 1-2.719 2.718h-7.71L45.212 44.334l6.967-7.86Z" fill="#E4E5E7"/></svg>
